img/svg/online-school/check-circle.svg

<svg width="24" height="24" viewBox="0 0 24 24" fill="none" xmlns="http://www.w3.org/2000/svg">
<g clip-path="url(#clip0_8580_2787)">
<path d="M11.6088 14.4342L16.8105 7.80663C16.9268 7.69319 17.0827 7.62942 17.2453 7.62898C17.4095 7.62852 17.5673 7.69272 17.6845 7.80768L18.0346 7.45064L17.6845 7.80768C17.8018 7.92264 17.8691 8.07913 17.8719 8.24332C17.8747 8.40752 17.8128 8.56621 17.6995 8.6851L17.6846 8.70076L17.6711 8.71765L11.6964 16.186C11.6415 16.2421 11.5764 16.2874 11.5046 16.3194C11.428 16.3537 11.3453 16.3721 11.2614 16.3737C11.1774 16.3752 11.0941 16.3599 11.0162 16.3285C10.9384 16.2971 10.8677 16.2504 10.8083 16.1912C10.8083 16.1912 10.8083 16.1911 10.8082 16.1911L6.84672 12.2281C6.73956 12.1103 6.68135 11.956 6.68416 11.7965C6.68702 11.6346 6.75261 11.4801 6.86712 11.3656C6.98163 11.2511 7.13612 11.1855 7.29804 11.1827C7.45742 11.1798 7.61176 11.238 7.72955 11.3452L10.8619 14.479L11.2606 14.8779L11.6088 14.4342ZM4.22182 19.7782C6.28473 21.8411 9.08262 23 12 23C14.9174 23 17.7153 21.8411 19.7782 19.7782C21.8411 17.7153 23 14.9174 23 12C23 9.08262 21.8411 6.28473 19.7782 4.22183C17.7153 2.15893 14.9174 1 12 1C9.08262 1 6.28473 2.15893 4.22183 4.22183C2.15893 6.28473 1 9.08262 1 12C1 14.9174 2.15893 17.7153 4.22182 19.7782ZM20.1317 20.1317C17.9751 22.2884 15.05 23.5 12 23.5C8.95001 23.5 6.02494 22.2884 3.86827 20.1317C1.7116 17.9751 0.5 15.05 0.5 12C0.5 8.95001 1.7116 6.02494 3.86827 3.86827C6.02494 1.7116 8.95001 0.5 12 0.5C15.05 0.5 17.9751 1.7116 20.1317 3.86827C22.2884 6.02494 23.5 8.95001 23.5 12C23.5 15.05 22.2884 17.9751 20.1317 20.1317Z" fill="#FBFBFB" stroke="#FBFBFB"/>
</g>
<defs>
<clipPath id="clip0_8580_2787">
<rect width="24" height="24" fill="white"/>
</clipPath>
</defs>
</svg>

<svg width="24" height="24" fill="none" xmlns="http://www.w3.org/2000/svg"><g clip-path="url(#clip0_8580_2787)"><path d="M11.609 14.434l5.202-6.627a.625.625 0 01.873 0l.35-.356-.35.357a.625.625 0 01.015.877l-.014.016-.014.017-5.975 7.468a.624.624 0 01-.888.005s0 0 0 0l-3.961-3.963a.625.625 0 01.883-.883l3.132 3.134.399.399.348-.444zm-7.387 5.344A11 11 0 1019.778 4.222 11 11 0 004.222 19.778zm15.91.354A11.5 11.5 0 113.868 3.869a11.5 11.5 0 0116.264 16.263z" fill="#FBFBFB" stroke="#FBFBFB"/></g><defs><clipPath id="clip0_8580_2787"><path fill="#fff" d="M0 0h24v24H0z"/></clipPath></defs></svg>
